storage/app/icons/phosphoricons/light/monitor-play-light.svg

<svg xmlns="http://www.w3.org/2000/svg" fill="currentColor" viewBox="0 0 256 256"><path d="m163.33 115-48-32a6 6 0 0 0-9.33 5v64a6 6 0 0 0 9.33 5l48-32a6 6 0 0 0 0-10M118 140.79V99.21L149.18 120ZM208 42H48a22 22 0 0 0-22 22v112a22 22 0 0 0 22 22h160a22 22 0 0 0 22-22V64a22 22 0 0 0-22-22m10 134a10 10 0 0 1-10 10H48a10 10 0 0 1-10-10V64a10 10 0 0 1 10-10h160a10 10 0 0 1 10 10Zm-52 48a6 6 0 0 1-6 6H96a6 6 0 0 1 0-12h64a6 6 0 0 1 6 6"/></svg>

<svg xmlns="http://www.w3.org/2000/svg" viewBox="0 0 256 256" fill="currentColor"><path d="M163.33,115l-48-32A6,6,0,0,0,106,88v64a6,6,0,0,0,9.33,5l48-32a6,6,0,0,0,0-10ZM118,140.79V99.21L149.18,120ZM208,42H48A22,22,0,0,0,26,64V176a22,22,0,0,0,22,22H208a22,22,0,0,0,22-22V64A22,22,0,0,0,208,42Zm10,134a10,10,0,0,1-10,10H48a10,10,0,0,1-10-10V64A10,10,0,0,1,48,54H208a10,10,0,0,1,10,10Zm-52,48a6,6,0,0,1-6,6H96a6,6,0,0,1,0-12h64A6,6,0,0,1,166,224Z"/></svg>
